src/lib/packages/icons/src/assets/line/vk.svg

<svg width="24" height="24" viewBox="0 0 24 24" fill="none" xmlns="http://www.w3.org/2000/svg">
<path d="M21.72 17.8002C21.11 15.5402 19.7 13.5902 17.77 12.3002C19.37 11.0002 20.53 9.19026 21.01 7.17026C21.06 6.95026 21.01 6.71024 20.87 6.53024C20.73 6.35024 20.51 6.24023 20.28 6.24023H17.36C17.03 6.24023 16.75 6.45025 16.65 6.76025C16.16 8.28025 15.04 9.64026 13.91 10.2003V6.99023C13.91 6.58023 13.57 6.24023 13.16 6.24023H10.26C9.84999 6.24023 9.50999 6.58023 9.50999 6.99023V13.4002C8.20999 12.5502 6.95999 10.5402 6.84999 6.97025C6.83999 6.57025 6.50999 6.24023 6.09999 6.24023H3.00999C2.80999 6.24023 2.60999 6.32025 2.46999 6.47025C2.32999 6.62025 2.24999 6.81025 2.25999 7.01025C2.46999 14.3503 6.41999 18.7402 12.81 18.7402H13.17C13.58 18.7402 13.92 18.4002 13.92 17.9902V14.8903C15.38 15.3303 16.57 16.5502 17.11 18.2202C17.21 18.5302 17.5 18.7402 17.82 18.7402H21.01C21.24 18.7402 21.46 18.6303 21.61 18.4503C21.75 18.2603 21.8 18.0202 21.74 17.8002H21.72ZM18.33 17.2502C17.41 14.9802 15.49 13.4602 13.22 13.2402C13.01 13.2202 12.8 13.2902 12.64 13.4302C12.48 13.5702 12.39 13.7702 12.39 13.9902V17.2402C7.28999 17.0702 4.17999 13.6502 3.76999 7.75024H5.35999C5.71999 12.5102 7.97999 14.7602 10.05 15.2802C10.27 15.3302 10.51 15.2803 10.69 15.1403C10.87 15.0003 10.98 14.7802 10.98 14.5502V7.75024H12.38V11.2102C12.38 11.4202 12.47 11.6302 12.63 11.7702C12.79 11.9102 13 11.9802 13.21 11.9602C15.03 11.7702 16.95 10.0002 17.86 7.75024H19.24C18.63 9.39024 17.47 10.8103 15.97 11.7303C15.74 11.8703 15.6 12.1302 15.61 12.4002C15.62 12.6702 15.78 12.9203 16.03 13.0403C17.81 13.9303 19.19 15.4302 19.93 17.2502H18.31H18.33Z" fill="currentColor"/>
</svg>

<svg xmlns="http://www.w3.org/2000/svg" width="24" height="24" fill="none"><path fill="currentColor" d="M21.72 17.8a9.638 9.638 0 0 0-3.95-5.5c1.6-1.3 2.76-3.11 3.24-5.13a.754.754 0 0 0-.73-.93h-2.92c-.33 0-.61.21-.71.52-.49 1.52-1.61 2.88-2.74 3.44V6.99c0-.41-.34-.75-.75-.75h-2.9c-.41 0-.75.34-.75.75v6.41c-1.3-.85-2.55-2.86-2.66-6.43a.752.752 0 0 0-.75-.73H3.01c-.2 0-.4.08-.54.23-.14.15-.22.34-.21.54.21 7.34 4.16 11.73 10.55 11.73h.36c.41 0 .75-.34.75-.75v-3.1c1.46.44 2.65 1.66 3.19 3.33.1.31.39.52.71.52h3.19c.23 0 .45-.11.6-.29.14-.19.19-.43.13-.65h-.02Zm-3.39-.55c-.92-2.27-2.84-3.79-5.11-4.01a.772.772 0 0 0-.58.19c-.16.14-.25.34-.25.56v3.25c-5.1-.17-8.21-3.59-8.62-9.49h1.59c.36 4.76 2.62 7.01 4.69 7.53a.754.754 0 0 0 .93-.73v-6.8h1.4v3.46c0 .21.09.42.25.56.16.14.37.21.58.19 1.82-.19 3.74-1.96 4.65-4.21h1.38a7.94 7.94 0 0 1-3.27 3.98c-.23.14-.37.4-.36.67.01.27.17.52.42.64 1.78.89 3.16 2.39 3.9 4.21h-1.62.02Z"/></svg>
